bundle/image/components/fullCard/img/bg.svg

<svg width="378" height="567" fill="none" xmlns="http://www.w3.org/2000/svg"><path d="M0 543.424h217L237.5 567H335V0H59L.274 46.025 0 543.424z" fill="#F2F2F2"/><path d="m217.377 543.096-.149-.172H.5L.774 46.269 59.173.5H334.5v566h-96.772l-20.351-23.404z" stroke="#989898" stroke-opacity=".5"/><path d="M251.645 561.6h-7.618L228 543h7.631l16.014 18.6zM262.497 561.6h-7.433L239.466 543h7.433l15.598 18.6zM273.963 561.6h-7.433L250.932 543h7.42l15.611 18.6zM285.429 561.6h-7.433L262.398 543h7.42l15.611 18.6zM296.882 561.6h-7.42L273.851 543h7.433l15.598 18.6zM308.348 561.6h-7.433L285.317 543h7.433l15.598 18.6zM319.814 561.6h-7.433L296.783 543h7.421l15.61 18.6zM331.28 561.6h-7.433l-15.61-18.6h7.433l15.61 18.6zM342.733 561.6h-7.42L319.702 543h7.433l15.598 18.6zM354.199 561.6h-7.433L331.168 543h7.433l15.598 18.6zM365.665 561.6h-7.433L342.634 543h7.421l15.61 18.6zM377.131 561.6h-7.433l-15.61-18.6h7.433l15.61 18.6z" fill="#F8EC2C"/></svg>

<svg width="378" height="567" viewBox="0 0 378 567" fill="none" xmlns="http://www.w3.org/2000/svg">
<path d="M0 543.424H217L237.5 567H335V0H59L0.273685 46.0252L0 543.424Z" fill="#F2F2F2"/>
<path d="M217.377 543.096L217.228 542.924H217H0.500275L0.773552 46.2687L59.1726 0.5H334.5V566.5H237.728L217.377 543.096Z" stroke="#989898" stroke-opacity="0.5"/>
<path d="M251.645 561.6H244.027L228 543H235.631L251.645 561.6Z" fill="#F8EC2C"/>
<path d="M262.497 561.6H255.064L239.466 543H246.899L262.497 561.6Z" fill="#F8EC2C"/>
<path d="M273.963 561.6H266.53L250.932 543H258.352L273.963 561.6Z" fill="#F8EC2C"/>
<path d="M285.429 561.6H277.996L262.398 543H269.818L285.429 561.6Z" fill="#F8EC2C"/>
<path d="M296.882 561.6H289.462L273.851 543H281.284L296.882 561.6Z" fill="#F8EC2C"/>
<path d="M308.348 561.6H300.915L285.317 543H292.75L308.348 561.6Z" fill="#F8EC2C"/>
<path d="M319.814 561.6H312.381L296.783 543H304.204L319.814 561.6Z" fill="#F8EC2C"/>
<path d="M331.28 561.6H323.847L308.237 543H315.67L331.28 561.6Z" fill="#F8EC2C"/>
<path d="M342.733 561.6H335.313L319.702 543H327.135L342.733 561.6Z" fill="#F8EC2C"/>
<path d="M354.199 561.6H346.766L331.168 543H338.601L354.199 561.6Z" fill="#F8EC2C"/>
<path d="M365.665 561.6H358.232L342.634 543H350.055L365.665 561.6Z" fill="#F8EC2C"/>
<path d="M377.131 561.6H369.698L354.088 543H361.521L377.131 561.6Z" fill="#F8EC2C"/>
</svg>
